X: 25323
T: Mango Tree, The
R: reel
M: 4/4
K: Dmajor
DEFA BAFA|d2 fd edBc|d2 dB ABdB|AFDE FE E2|
DEFA BAFA|d2 fd edBc|d2 dB ABdB|1 AFEG FDDE:|2 AFEG FABc||
d2 fd adfd|gabg e2 ed|c2 cd e2 ef|gfed cABc|
d2 fd Adfd|gfed e2 ed|cAAB cdef|gfed cABc|
d2 fd adfd|gabg e2 ed|cdef gfeg|fegf egfe|
d2 fd Adfd|gfed e2 ed|cAAB cAAB|cded cAGE||

